icon_installer/data/icons/scalable/actions/show-text-underline-symbolic.svg

<?xml version="1.0" encoding="UTF-8"?>
<svg height="16px" viewBox="0 0 16 16" width="16px" xmlns="http://www.w3.org/2000/svg">
    <g fill="#222222">
        <path d="m 2 14 c 0 0.550781 0.449219 1 1 1 h 10 c 0.550781 0 1 -0.449219 1 -1 s -0.449219 -1 -1 -1 h -10 c -0.550781 0 -1 0.449219 -1 1 z m 0 0"/>
        <path d="m 5 4 h 5 c 0.546875 0 1 0.453125 1 1 v 3.925781 c 0 0.589844 -0.484375 1.074219 -1.074219 1.074219 h -3.917969 c -0.589843 0 -1.074218 -0.484375 -1.078124 -1.074219 v 0.035157 c 0.019531 -0.546876 0.488281 -0.980469 1.035156 -0.960938 h 0.035156 h 6 c 0.550781 0 1 -0.449219 1 -1 s -0.449219 -1 -1 -1 h -6 h 0.035156 c -1.660156 -0.058594 -3.046875 1.230469 -3.105468 2.894531 v 0.035157 c 0.003906 1.703124 1.375 3.070312 3.078124 3.070312 h 3.917969 c 1.703125 0 3.074219 -1.371094 3.074219 -3.074219 v -3.925781 c 0 -1.664062 -1.335938 -3 -3 -3 h -5 c -0.550781 0 -1 0.449219 -1 1 s 0.449219 1 1 1 z m 0 0"/>
    </g>
</svg>

<svg xmlns="http://www.w3.org/2000/svg" width="16" height="16"><path fill="#222" d="M2 14c0 .55.45 1 1 1h10c.55 0 1-.45 1-1s-.45-1-1-1H3c-.55 0-1 .45-1 1zM5 4h5c.547 0 1 .453 1 1v3.926C11 9.516 10.516 10 9.926 10H6.008c-.59 0-1.074-.484-1.078-1.074v.035c.02-.547.488-.98 1.035-.961H12c.55 0 1-.45 1-1s-.45-1-1-1H6h.035A2.995 2.995 0 0 0 2.93 8.895v.035A3.07 3.07 0 0 0 6.008 12h3.918A3.067 3.067 0 0 0 13 8.926V5c0-1.664-1.336-3-3-3H5c-.55 0-1 .45-1 1s.45 1 1 1zm0 0"/></svg>
